!!!!SEGMENT: pl-cz--d-ii-29--001-005_elsner-jozef--msza-f-op-35-offertorium.krn
!!!cenid: 18xx:183
!!!COM: Elsner, Józef
!!!COM-rismID: pe30000957
!!!CDT: 1769/06/01-1854/04/18
!!!CNT: Polish
!!!OPR: Msza F op. 35
!!!OTL: Offertorium
!!!OMV: 005
!!!PDT:
!!!AGN: Sacred; Mass
!!!YEC: Copyright 2022 Narodowy Instytut Fryderyka Chopina (https://polishscores.org)
!!!YEM: License CC-BY-4.0 (https://creativecommons.org/licenses/by/4.0)
!!!SMS-siglum: PL-CZ
!!!SMS-shelfmark: D II-29
!!!SMS-shelfwork: 001-005 M
!!!NIFC-rismSourceID: 1001127151
!!!NIFC-rismChildID: 1001127151
!!!NIFC-islandoraID:
!!!URL-pdf-islandora:
!!!URL-scan:
!!!IIIF:
!!!ONB-nifc: UWAGA: części Mszy: Kyrie, Gloria, Graduale, Credo, Offertorium, Sanctus, Agnus Dei
!!!AIN: 1 alto 1 bass 1 organ 1 soprn 1 tenor
!!!OMD:
!!!OMD-mod: Andante
!!!key: D
**kern	**kern	**kern	**text	**mod-text	**text	**mod-text	**text	**mod-text	**kern	**text	**mod-text	**text	**mod-text	**text	**mod-text	**kern	**text	**mod-text	**text	**mod-text	**text	**mod-text	**kern	**text	**mod-text	**text	**mod-text	**text	**mod-text
*part5	*part5	*part4	*	*	*	*	*	*	*part3	*	*	*	*	*	*	*part2	*	*	*	*	*	*	*part1	*	*	*	*	*	*
*staff6	*staff5	*staff4	*	*	*	*	*	*	*staff3	*	*	*	*	*	*	*staff2	*	*	*	*	*	*	*staff1	*	*	*	*	*	*
!LO:MO:mod=*>[A,A1,A,A1,A,A2]	!LO:MO:mod=*>[A,A1,A,A1,A,A2]	!LO:MO:mod=*>[A,A1,A,A1,A,A2]	!	!	!	!	!	!	!LO:MO:mod=*>[A,A1,A,A1,A,A2]	!	!	!	!	!	!	!LO:MO:mod=*>[A,A1,A,A1,A,A2]	!	!	!	!	!	!	!LO:MO:mod=*>[A,A1,A,A1,A,A2]	!	!	!	!	!	!
*null	*null	*null	*	*	*	*	*	*	*null	*	*	*	*	*	*	*null	*	*	*	*	*	*	*null	*	*	*	*	*	*
!LO:MO:mod=*>A	!LO:MO:mod=*>A	!LO:MO:mod=*>A	!	!	!	!	!	!	!LO:MO:mod=*>A	!	!	!	!	!	!	!LO:MO:mod=*>A	!	!	!	!	!	!	!LO:MO:mod=*>A	!	!	!	!	!	!
*null	*null	*null	*	*	*	*	*	*	*null	*	*	*	*	*	*	*null	*	*	*	*	*	*	*null	*	*	*	*	*	*
*I"ORGAN	*I"ORGAN	*I"BASSO	*	*	*	*	*	*	*I"TENORE	*	*	*	*	*	*	*I"ALTO	*	*	*	*	*	*	*I"CANTO	*	*	*	*	*	*
*mI"Organo	*mI"Organo	*mI"Basso	*	*	*	*	*	*	*mI"Tenore	*	*	*	*	*	*	*mI"Alto	*	*	*	*	*	*	*mI"Soprano	*	*	*	*	*	*
*I'org	*I'org	*I'B	*	*	*	*	*	*	*I'T	*	*	*	*	*	*	*I'A	*	*	*	*	*	*	*I'S	*	*	*	*	*	*
*Iorgan	*Iorgan	*Ibass	*	*	*	*	*	*	*Itenor	*	*	*	*	*	*	*Ialto	*	*	*	*	*	*	*Isoprn	*	*	*	*	*	*
*ICklav	*ICklav	*ICvox	*	*	*	*	*	*	*ICvox	*	*	*	*	*	*	*ICvox	*	*	*	*	*	*	*ICvox	*	*	*	*	*	*
*	*	*IGcoro	*	*	*	*	*	*	*IGcoro	*	*	*	*	*	*	*IGcoro	*	*	*	*	*	*	*IGcoro	*	*	*	*	*	*
*clefF4	*clefG2	*clefF4	*	*	*	*	*	*	*clefC4	*	*	*	*	*	*	*clefC3	*	*	*	*	*	*	*clefC1	*	*	*	*	*	*
*	*	*	*	*	*	*	*	*	*mclefGv2	*	*	*	*	*	*	*mclefG2	*	*	*	*	*	*	*mclefG2	*	*	*	*	*	*
*k[f#c#]	*k[f#c#]	*k[f#c#]	*	*	*	*	*	*	*k[f#c#]	*	*	*	*	*	*	*k[f#c#]	*	*	*	*	*	*	*k[f#c#]	*	*	*	*	*	*
*D:	*D:	*D:	*	*	*	*	*	*	*D:	*	*	*	*	*	*	*D:	*	*	*	*	*	*	*D:	*	*	*	*	*	*
*M3/4	*M3/4	*M3/4	*	*	*	*	*	*	*M3/4	*	*	*	*	*	*	*M3/4	*	*	*	*	*	*	*M3/4	*	*	*	*	*	*
=1	=1	=1	=1	=1	=1	=1	=1	=1	=1	=1	=1	=1	=1	=1	=1	=1	=1	=1	=1	=1	=1	=1	=1	=1	=1	=1	=1	=1	=1
!	!	!	!	!LO:MO:mod=*v&colon;1	!	!LO:MO:mod=*v&colon;2	!	!LO:MO:mod=*v&colon;3	!	!	!LO:MO:mod=*v&colon;1	!	!LO:MO:mod=*v&colon;2	!	!LO:MO:mod=*v&colon;3	!	!	!LO:MO:mod=*v&colon;1	!	!LO:MO:mod=*v&colon;2	!	!LO:MO:mod=*v&colon;3	!	!	!LO:MO:mod=*v&colon;1	!	!LO:MO:mod=*v&colon;2	!	!LO:MO:mod=*v&colon;3
*	*	*	*	*null	*	*null	*	*null	*	*	*null	*	*null	*	*null	*	*	*null	*	*null	*	*null	*	*	*null	*	*null	*	*null
!	!LO:TX:B:t=Andante:mod=	!	!	!	!	!	!	!	!	!	!	!	!	!	!	!	!	!	!	!	!	!	!LO:TX:B:t=Andante:mod=	!	!	!	!	!	!
2.D/	4f# 4d/	2D\	Przyi-	Przyj-	Kę-	Kę-	Któ-	Któ-	2d\	Przyi-	Przyj-	.	Kę-	.	Któ-	(4d\	Przyi-	Przyj-	.	Kę-	.	Któ-	(4f#/	Przyi-	Przyj-	.	Kę-	.	Któ-
.	4g 4e/	.	.	.	.	.	.	.	.	.	.	.	.	.	.	4e\)	.	.	.	.	.	.	4g/)	.	.	.	.	.	.
.	4a 4f#/	4D\	-miy	-mij	-dy	-dy	-rzy	-rzy	4d\	-miy	-mij	.	-dy	.	-rzy	4f#\	-miy	-mij	.	-dy	.	-rzy	4a/	-miy	-mij	.	-dy	.	-rzy
=2	=2	=2	=2	=2	=2	=2	=2	=2	=2	=2	=2	=2	=2	=2	=2	=2	=2	=2	=2	=2	=2	=2	=2	=2	=2	=2	=2	=2	=2
*	*^	*	*	*	*	*	*	*	*	*	*	*	*	*	*	*	*	*	*	*	*	*	*	*	*	*	*	*	*
!	!	!LO:MO:mod=(2.d	!	!	!	!	!	!	!	!	!	!	!	!	!	!	!	!	!	!	!	!	!	!	!	!	!	!	!	!
2.D/	2b 2g/	(<2d\	2D\	Bo-	Bo-	Two-	Two-	iuż	już	2d\	Bo-	Bo-	.	Two-	.	już	2g\	Bo-	Bo-	.	Two-	.	już	2b\	Bo-	Bo-	.	Two-	.	już
!	!	!LO:MO:mod=.	!	!	!	!	!	!	!	!	!	!	!	!	!	!	!	!	!	!	!	!	!	!	!	!	!	!	!	!
.	4a 4f#/	4ryy	4D\	-że	-że	-ie	-je	są	są	4d\	-że	-że	.	-je	.	są	4f#\	-że	-że	.	-je	.	są	4a\	-że	-że	.	-je	.	są
=3	=3	=3	=3	=3	=3	=3	=3	=3	=3	=3	=3	=3	=3	=3	=3	=3	=3	=3	=3	=3	=3	=3	=3	=3	=3	=3	=3	=3	=3	=3
2D/	2g 2e 2B/)	2ryyyy	2D\	tę	tę	słoń-	słoń-	przy	przy	2B\	tę	tę	.	słoń-	.	przy	2e\	tę	tę	.	słoń-	.	przy	2g\	tę	tę	.	słoń-	.	przy
4C#/	8a/L	4e 4A\	4C#/	o-	o-	-ce	-ce	twym	Twym	4A\	o-	o-	.	-ce	.	Twym	4e\	o-	o-	.	-ce	.	Twym	8a\L	o-	o-	.	-ce	.	Twym
.	8g/J	.	.	.	.	.	.	.	.	.	.	.	.	.	.	.	.	.	.	.	.	.	.	8g\J	.	.	.	.	.	.
=4	=4	=4	=4	=4	=4	=4	=4	=4	=4	=4	=4	=4	=4	=4	=4	=4	=4	=4	=4	=4	=4	=4	=4	=4	=4	=4	=4	=4	=4	=4
!	!	!LO:MO:mod=2A	!	!	!	!	!	!	!	!	!	!	!	!	!	!	!	!	!	!	!	!	!	!	!	!	!	!	!	!
2D/	8.gL 8.e/	4A\	4D\	-fia-	-fia-	swie-	świe-	tro-	tro-	4A\	-fia-	-fia-	.	świe-	.	tro-	8.e\L	-fia-	-fia-	.	świe-	.	tro-	8.g/L	-fia-	-fia-	.	świe-	.	tro-
.	16f#Jk 16d/	.	.	.	.	.	.	.	.	.	.	.	.	.	.	.	16d\Jk	.	.	.	.	.	.	16f#/Jk	.	.	.	.	.	.
!	!	!LO:MO:mod=.	!	!	!	!	!	!	!	!	!	!	!	!	!	!	!	!	!	!	!	!	!	!	!	!	!	!	!	!
.	4f# 4d/	2ryy	4D\	-rę,	-rę,	-ći	-ci,	-nie	-nie,	4A\	-rę	-rę,	.	-ci,	.	-nie,	4d\	-rę	-rę,	.	-ci,	.	-nie,	4f#/	-rę	-rę,	.	-ci,	.	-nie,
!	!	!LO:MO:null:mod=4ryyyy	!	!	!	!	!	!	!	!	!	!	!	!	!	!	!	!	!	!	!	!	!	!	!	!	!	!	!	!
4BB/	4g#X 4e 4d/	.	4r	.	.	.	.	.	.	4r	.	.	.	.	.	.	4r	.	.	.	.	.	.	4r	.	.	.	.	.	.
*	*v	*v	*	*	*	*	*	*	*	*	*	*	*	*	*	*	*	*	*	*	*	*	*	*	*	*	*	*	*	*
=5	=5	=5	=5	=5	=5	=5	=5	=5	=5	=5	=5	=5	=5	=5	=5	=5	=5	=5	=5	=5	=5	=5	=5	=5	=5	=5	=5	=5	=5
2.AA/	2a 2e 2c#/	2C#/	Któ-	któ-	Tam	tam	Ci	Ci,	2A\	Któ-	któ-	.	tam	.	Ci,	2e\	Któ-	któ-	.	tam	.	Ci,	2a\	Któ-	któ-	.	tam	.	Ci,
.	4cc# 4a 4e/	4AA/	-rą	-rą	gdzie	gdzie	co	co	4A\	-rą	-rą	.	gdzie	.	co	4e\	-rą	-rą	.	gdzie	.	co	(4cc#\	-rą	-rą	.	gdzie	.	co
=6	=6	=6	=6	=6	=6	=6	=6	=6	=6	=6	=6	=6	=6	=6	=6	=6	=6	=6	=6	=6	=6	=6	=6	=6	=6	=6	=6	=6	=6
*	*^	*	*	*	*	*	*	*	*	*	*	*	*	*	*	*	*	*	*	*	*	*	*	*	*	*	*	*	*
2.D/	2cc#/	2.f#\	2D\	za	za	ludz-	ludz-	ży-	ży-	2A\	za	za	.	ludz-	.	ży-	2f#\	za	za	.	ludz-	.	ży-	4cc#\)	.	.	.	.	.	.
.	.	.	.	.	.	.	.	.	.	.	.	.	.	.	.	.	.	.	.	.	.	.	.	4f#\	za	za	.	ludz-	.	ży-
.	4b/	.	4D\	nas	nas	-kie	-kie	-ią	-ją	4B\	nas	nas	.	-kie	.	-ją	4f#\	nas	nas	.	-kie	.	-ją	8.dd\L	nas	nas	.	-kie	.	-ją
.	.	.	.	.	.	.	.	.	.	.	.	.	.	.	.	.	.	.	.	.	.	.	.	16b\Jk	.	.	.	.	.	.
*	*v	*v	*	*	*	*	*	*	*	*	*	*	*	*	*	*	*	*	*	*	*	*	*	*	*	*	*	*	*	*
=7	=7	=7	=7	=7	=7	=7	=7	=7	=7	=7	=7	=7	=7	=7	=7	=7	=7	=7	=7	=7	=7	=7	=7	=7	=7	=7	=7	=7	=7
2.E\	2a 2e 2c#/	2E\	ka-	ka-	Ser-	ser-	do	do	2c#\	ka-	ka-	.	ser-	.	do	2e\	ka-	ka-	.	ser-	.	do	2a\	ka-	ka-	.	ser-	.	do
.	4g#X 4d 4B/	4E\	-płan	-płan	-ca	-ca	tey	tej	4B\	-płan	-płan	.	-ca	.	tej	8.e\L	płan	-płan	.	-ca	.	tej	4g#X\	-płan	-płan	.	-ca	.	tej
.	.	.	.	.	.	.	.	.	.	.	.	.	.	.	.	16d\Jk	.	.	.	.	.	.	.	.	.	.	.	.	.
=8	=8	=8	=8	=8	=8	=8	=8	=8	=8	=8	=8	=8	=8	=8	=8	=8	=8	=8	=8	=8	=8	=8	=8	=8	=8	=8	=8	=8	=8
!	!	!	!	!	!	!	!	!	!	!	!	!	!	!	!	!	!	!	!	!	!	!	!LO:SIC:v:s=8.g#L	!	!	!	!	!	!
2AA/	8.g#XL 8.d 8.B/	4AA/	swię-	świę-	bi-	bi-	chwi-	chwi-	8.B\L	swię-	świę-	.	bi-	.	chwi-	8.d\L	swię-	świę-	.	bi-	.	chwi-	8.g\L	swię-	świę-	.	bi-	.	chwi-
.	16aJk 16e 16c#/	.	.	.	.	.	.	.	16A\Jk	.	.	.	.	.	.	16c#\Jk	-ci	.	.	.	.	.	16a\Jk	.	.	.	.	.	.
.	8aL 8e 8c#/	4AA/	-ci	-ci,	-ią	-ją.	-li	-li,	4A\	-ci	-ci,	.	-ją.	.	-li,	4c#\	.	-ci,	.	-ją.	.	-li,	4a\	-ci	-ci,	.	-ją.	.	-li,
.	(8gn 8e/	.	.	.	.	.	.	.	.	.	.	.	.	.	.	.	.	.	.	.	.	.	.	.	.	.	.	.	.
4r	8f# 8d/	4r	.	.	.	.	.	.	4r	.	.	.	.	.	.	4r	.	.	.	.	.	.	4r	.	.	.	.	.	.
.	8eJ 8c#/)	.	.	.	.	.	.	.	.	.	.	.	.	.	.	.	.	.	.	.	.	.	.	.	.	.	.	.	.
!!LO:PB:g=original
=9	=9	=9	=9	=9	=9	=9	=9	=9	=9	=9	=9	=9	=9	=9	=9	=9	=9	=9	=9	=9	=9	=9	=9	=9	=9	=9	=9	=9	=9
2.D\	(4f# 4d/	2D\	wzma-	wzma-	Niech	Niech	Co	co	2d\	wzma-	wzma-	.	Niech	.	co	(4d\	wzma-	wzma-	.	Niech	.	co	(4f#	wzma-	wzma-	.	Niech	.	co
.	4g 4e/)	.	.	.	.	.	.	.	.	.	.	.	.	.	.	4e\)	.	.	.	.	.	.	4g/)	.	.	.	.	.	.
.	4a 4f#/	4D\	-cniay	-cniaj	się	się	po	po	4d\	-cniay	-cniaj	.	się	.	po	4f#\	-cniay	-cniaj	.	się	.	po	4a\	-cniay	-cniaj	.	się	.	po
=10	=10	=10	=10	=10	=10	=10	=10	=10	=10	=10	=10	=10	=10	=10	=10	=10	=10	=10	=10	=10	=10	=10	=10	=10	=10	=10	=10	=10	=10
*	*^	*	*	*	*	*	*	*	*	*	*	*	*	*	*	*	*	*	*	*	*	*	*	*	*	*	*	*	*
2.D\	2b 2g/	(>2.d\	2D\	wie-	wie-	zna-	zna-	na-	na-	2d\	wie-	wie-	.	zna-	.	na-	2g\	wie-	wie-	.	zna-	.	na-	2b\	wie-	wie-	.	zna-	.	na-
.	4a 4f#/	.	4D\	-cznie	-cznie	-ią	-ją	-szym	-szym	8d\L	-cznie	-cznie	.	-ją	.	-szym	4f#\	-cznie	-cznie	.	-ją	.	-szym	4a\	-cznie	-cznie	.	-ją	.	-szym
.	.	.	.	.	.	.	.	.	.	8cn\J	.	.	.	.	.	.	.	.	.	.	.	.	.	.	.	.	.	.	.	.
=11	=11	=11	=11	=11	=11	=11	=11	=11	=11	=11	=11	=11	=11	=11	=11	=11	=11	=11	=11	=11	=11	=11	=11	=11	=11	=11	=11	=11	=11	=11
2D\	2g 2e/	4B\)	2D\	na-	na-	two-	Two-	przyi-	przyj-	(4B\	na-	na-	.	Two-	.	przyj-	2e\	na-	na-	.	Two-	.	przyj-	2g\	na-	na-	.	Two-	.	przyj-
.	.	4B-X\	.	.	.	.	.	.	.	4B-X\)	.	.	.	.	.	.	.	.	.	.	.	.	.	.	.	.	.	.	.	.
4C#\	8aL 8e/	4A\	4C#/	-szą	-szą	-ie	-je	-dą	-dą	4A\	-szą	-szą	.	-je	.	-dą	4e\	-szą	-szą	.	-je	.	-dą	8a\L	-szą	-szą	.	-je	.	-dą
.	8g/J	.	.	.	.	.	.	.	.	.	.	.	.	.	.	.	.	.	.	.	.	.	.	8g\J	.	.	.	.	.	.
*	*v	*v	*	*	*	*	*	*	*	*	*	*	*	*	*	*	*	*	*	*	*	*	*	*	*	*	*	*	*	*
=12	=12	=12	=12	=12	=12	=12	=12	=12	=12	=12	=12	=12	=12	=12	=12	=12	=12	=12	=12	=12	=12	=12	=12	=12	=12	=12	=12	=12	=12
4D\	8.gL 8.e/	4D\	wia-	wia-	dzie-	dzie-	zgo-	zgo-	8.A\L	wia-	wia-	.	dzie-	.	zgo-	8.e\L	wia-	wia-	.	dzie-	.	zgo-	8.g/L	wia-	wia-	.	dzie-	.	zgo-
.	16f#Jk 16d/	.	.	.	.	.	.	.	16d\Jk	.	.	.	.	.	.	16d\Jk	.	.	.	.	.	.	16f#/Jk	.	.	.	.	.	.
8D\L	4.f# 4.d/	4D\	-rę	-rę,	-ci	-ci,	-nie	-nie,	4d\	-rę	-rę,	.	-ci,	.	-nie,	4d\	-rę	-rę,	.	-ci,	.	-nie,	4f#/	-rę	-rę,	.	-ci,	.	-nie,
8C#\	.	.	.	.	.	.	.	.	.	.	.	.	.	.	.	.	.	.	.	.	.	.	.	.	.	.	.	.	.
8BB\	.	4r	.	.	.	.	.	.	4r	.	.	.	.	.	.	4r	.	.	.	.	.	.	4r	.	.	.	.	.	.
8AA\J	8dd 8ccn 8f#/	.	.	.	.	.	.	.	.	.	.	.	.	.	.	.	.	.	.	.	.	.	.	.	.	.	.	.	.
=13	=13	=13	=13	=13	=13	=13	=13	=13	=13	=13	=13	=13	=13	=13	=13	=13	=13	=13	=13	=13	=13	=13	=13	=13	=13	=13	=13	=13	=13
*	*^	*	*	*	*	*	*	*	*	*	*	*	*	*	*	*	*	*	*	*	*	*	*	*	*	*	*	*	*
2.GG/	2dd/	2b 2g\	2G\	wspie-	wspie-	Niech	niech	Spraw	spraw	2d\	wspie-	wspie-	.	niech	.	spraw	2b\	wspie-	wspie-	.	niech	.	spraw	2dd\	wspie-	wspie-	.	niech	.	spraw
.	8cc#XL 8a\	4ryyyy	4G\	-ray	-raj	iak	jak	by	by	4d\	-ray	-raj	.	jak	.	by	8a\L	-ray	-raj	.	jak	.	by	8cc#\L	-ray	-raj	.	jak	.	by
.	8bJ 8g\	.	.	.	.	.	.	.	.	.	.	.	.	.	.	.	8g\J	.	.	.	.	.	.	8b\J	.	.	.	.	.	.
*	*v	*v	*	*	*	*	*	*	*	*	*	*	*	*	*	*	*	*	*	*	*	*	*	*	*	*	*	*	*	*
=14	=14	=14	=14	=14	=14	=14	=14	=14	=14	=14	=14	=14	=14	=14	=14	=14	=14	=14	=14	=14	=14	=14	=14	=14	=14	=14	=14	=14	=14
2.AA/	4.a 4.f#/	2A\	wszys-	wszy-	Bra-	bra-	Bo-	Bo-	(4.d\	wszys-	wszy-	.	bra-	.	Bo-	(4.f#\	wszys-	wszy-	.	bra-	.	Bo-	(4.a/	wszys-	wszy-	.	bra-	.	Bo-
.	8g 8e/	.	.	.	.	.	.	.	8A\)	.	.	.	.	.	.	8e\)	.	.	.	.	.	.	8g/)	.	.	.	.	.	.
!	!	!	!	!	!	!	!	!	!LO:SIC:v:s=4A	!	!	!	!	!	!	!	!	!	!	!	!	!	!	!	!	!	!	!	!
.	4f# 4d/	4A\	-tkie	-stkie	-cia	-cia	-że	-że	4G\	-tkie	-stkie	.	-cia	.	-że	4d\	-tkie	-stkie	.	-cia	.	-że	4f#/	-tkie	-stkie	.	-cia	.	-że
=15	=15	=15	=15	=15	=15	=15	=15	=15	=15	=15	=15	=15	=15	=15	=15	=15	=15	=15	=15	=15	=15	=15	=15	=15	=15	=15	=15	=15	=15
*^	*^	*	*	*	*	*	*	*	*	*	*	*	*	*	*	*	*	*	*	*	*	*	*	*	*	*	*	*	*
2A/	2.AA\	2e/	4d\	2AA/	do-	do-	w_zgo-	w_zgo-	w_to-	w_to-	2A\	do-	do-	.	w_zgo-	.	w_to-	(4d\	do-	do-	.	w_zgo-	.	w_to-	2e/	do-	do-	.	w_zgo-	.	w_to-
.	.	.	8.c#\L	.	.	.	.	.	.	.	.	.	.	.	.	.	.	8c#\L	.	.	.	.	.	.	.	.	.	.	.	.	.
.	.	.	.	.	.	.	.	.	.	.	.	.	.	.	.	.	.	8B\J)	.	.	.	.	.	.	.	.	.	.	.	.	.
.	.	.	16B\Jk	.	.	.	.	.	.	.	.	.	.	.	.	.	.	.	.	.	.	.	.	.	.	.	.	.	.	.	.
8A/L	.	4ryyyy	4c#\	4AA/	-bre	-bre	-dzie	-dzie	-bie	-bie	8A\L	-bre	-bre	.	-dzie	.	-bie	4c#\)	-bre	-bre	.	-dzie	.	-bie	4e/	-bre	-bre	.	-dzie	.	-bie
8G/J	.	.	.	.	.	.	.	.	.	.	8G\J	.	.	.	.	.	.	.	.	.	.	.	.	.	.	.	.	.	.	.	.
*v	*v	*	*	*	*	*	*	*	*	*	*	*	*	*	*	*	*	*	*	*	*	*	*	*	*	*	*	*	*	*	*
*	*v	*v	*	*	*	*	*	*	*	*	*	*	*	*	*	*	*	*	*	*	*	*	*	*	*	*	*	*	*	*
=16	=16	=16	=16	=16	=16	=16	=16	=16	=16	=16	=16	=16	=16	=16	=16	=16	=16	=16	=16	=16	=16	=16	=16	=16	=16	=16	=16	=16	=16
!LO:MO:mod=!LO&colon;TX&colon;t=1.2.	!	!	!	!	!	!	!	!	!	!	!	!	!	!	!	!	!	!	!	!	!	!	!	!	!	!	!	!	!
!null	!	!	!	!	!	!	!	!	!	!	!	!	!	!	!	!	!	!	!	!	!	!	!	!	!	!	!	!	!
!LO:MO:mod=*>A1	!LO:MO:mod=*>A1	!LO:MO:mod=*>A1	!	!	!	!	!	!	!LO:MO:mod=*>A1	!	!	!	!	!	!	!LO:MO:mod=*>A1	!	!	!	!	!	!	!LO:MO:mod=*>A1	!	!	!	!	!	!
*null	*null	*null	*	*	*	*	*	*	*null	*	*	*	*	*	*	*null	*	*	*	*	*	*	*null	*	*	*	*	*	*
2D\	8.e 8.c#/L 8.G<	4D\	chę-	chę-	ży-	ży-	ży-	.	8.G/L	chę-	chę-	.	ży-	.	.	8.c#\L	chę-	chę-	.	ży-	.	.	8.e/L	chę-	chę-	.	ży-	.	.
.	16d/ 16A< 16F#<Jk	.	.	.	.	.	.	.	16F#/Jk	-ci	.	.	.	.	.	16d\Jk	.	.	.	.	.	.	16d/Jk	.	.	.	.	.	.
!	!LO:TX:t=P:problem:cyfry 2 i 3 prawdopodobnie powtórki	!	!	!	!	!	!	!	!	!	!	!	!	!	!	!	!	!	!	!	!	!	!	!	!	!	!	!	!
.	4d/ 4A< 4F#<	4D\	-ci	-ci.	-ią	-ją.	-li	.	4F#/	.	-ci.	.	-ją.	.	.	4d\	-ci	-ci.	.	-ją.	.	.	4d/	-ci	-ci.	.	-ją.	.	.
4AA\	4e 4c#/ 4A<	4r	.	.	.	.	.	.	4r	.	.	.	.	.	.	4r	.	.	.	.	.	.	4r	.	.	.	.	.	.
!LO:MO:mod==17&colon;|!	!LO:MO:mod==17&colon;|!	!LO:MO:mod==17&colon;|!	!LO:MO:mod==17&colon;|!	!LO:MO:mod==17&colon;|!	!LO:MO:mod==17&colon;|!	!LO:MO:mod==17&colon;|!	!LO:MO:mod==17&colon;|!	!LO:MO:mod==17&colon;|!	!LO:MO:mod==17&colon;|!	!LO:MO:mod==17&colon;|!	!LO:MO:mod==17&colon;|!	!LO:MO:mod==17&colon;|!	!LO:MO:mod==17&colon;|!	!LO:MO:mod==17&colon;|!	!LO:MO:mod==17&colon;|!	!LO:MO:mod==17&colon;|!	!LO:MO:mod==17&colon;|!	!LO:MO:mod==17&colon;|!	!LO:MO:mod==17&colon;|!	!LO:MO:mod==17&colon;|!	!LO:MO:mod==17&colon;|!	!LO:MO:mod==17&colon;|!	!LO:MO:mod==17&colon;|!	!LO:MO:mod==17&colon;|!	!LO:MO:mod==17&colon;|!	!LO:MO:mod==17&colon;|!	!LO:MO:mod==17&colon;|!	!LO:MO:mod==17&colon;|!	!LO:MO:mod==17&colon;|!
=17||	=17||	=17||	=17||	=17||	=17||	=17||	=17||	=17||	=17||	=17||	=17||	=17||	=17||	=17||	=17||	=17||	=17||	=17||	=17||	=17||	=17||	=17||	=17||	=17||	=17||	=17||	=17||	=17||	=17||
!LO:MO:mod=!LO&colon;TX&colon;t=3.	!	!	!	!	!	!	!	!	!	!	!	!	!	!	!	!	!	!	!	!	!	!	!	!	!	!	!	!	!
!null	!	!	!	!	!	!	!	!	!	!	!	!	!	!	!	!	!	!	!	!	!	!	!	!	!	!	!	!	!
!LO:MO:mod=*>A2	!LO:MO:mod=*>A2	!LO:MO:mod=*>A2	!	!	!	!	!	!	!LO:MO:mod=*>A2	!	!	!	!	!	!	!LO:MO:mod=*>A2	!	!	!	!	!	!	!LO:MO:mod=*>A2	!	!	!	!	!	!
*null	*null	*null	*	*	*	*	*	*	*null	*	*	*	*	*	*	*null	*	*	*	*	*	*	*null	*	*	*	*	*	*
!	!LO:TX:a:t=fine:mod=	!LO:MO:mod=4D@	!	!	!	!	!	!	!LO:MO:mod=8.GL@	!	!	!	!	!	!	!LO:MO:mod=8.c#L@	!	!	!	!	!	!	!LO:MO:mod=8.eL@	!	!	!	!	!	!
2D 2DD\	8.e 8.c#/L 8.G<	2.r	.	.	.	.	.	ży-	2.r	.	.	.	.	.	ży-	2.r	.	.	.	.	.	ży-	2.r	.	.	.	.	.	ży-
!	!	!	!	!	!	!	!	!	!LO:MO:null:mod=16F#Jk@	!	!	!	!	!	!	!LO:MO:null:mod=16dJk@	!	!	!	!	!	!	!LO:MO:null:mod=16dJk@	!	!	!	!	!	!
.	16d/ 16A< 16F#<Jk	.	.	.	.	.	.	.	.	.	.	.	.	.	.	.	.	.	.	.	.	.	.	.	.	.	.	.	.
!	!	!LO:MO:null:mod=4D@	!	!	!	!	!	!	!LO:MO:null:mod=4F#@	!	!	!	!	!	!	!LO:MO:null:mod=4d@	!	!	!	!	!	!	!LO:MO:null:mod=4d@	!	!	!	!	!	!
.	4d/ 4A< 4F#<	.	.	.	.	.	.	-li.	.	.	.	.	.	.	-li.	.	.	.	.	.	.	-li.	.	.	.	.	.	.	-li.
!	!	!LO:MO:null:mod=4r@	!	!	!	!	!	!	!LO:MO:null:mod=4r@	!	!	!	!	!	!	!LO:MO:null:mod=4r@	!	!	!	!	!	!	!LO:MO:null:mod=4r@	!	!	!	!	!	!
4ryy	4r	.	.	.	.	.	.	.	.	.	.	.	.	.	.	.	.	.	.	.	.	.	.	.	.	.	.	.	.
!!LO:TX:b:t= :mod=Fine
==	==	==	==	==	==	==	==	==	==	==	==	==	==	==	==	==	==	==	==	==	==	==	==	==	==	==	==	==	==
*-	*-	*-	*-	*-	*-	*-	*-	*-	*-	*-	*-	*-	*-	*-	*-	*-	*-	*-	*-	*-	*-	*-	*-	*-	*-	*-	*-	*-	*-
!!!system-decoration: [vox]{(klav)}
!!!RDF**kern: > = above
!!!RDF**kern: < = below
!!LO:MO:mod
!! !!!RDF**kern: @ = marked note, color=grey
!!LO:MO:end
!!!filter-modern: shed -e "s/TX(.*):t=P:/tx$1:t=P:/LG" | shed -k -e "s/([^a-gA-Gn#X-])[<>]/$1/g" | sic -sq | modori -m | autostem -r | shed -e "s/yy//
!!!ENC: Anna Matuszewska
!!!END: 2020-04-01
!!!EED: Andrzej Kubiczek
!!!EEV: 2022-12-01
!!!ENC-modern: Andrzej Kubiczek
!!!END-modern: 2022-12-01
